X: 1
T: The Royal Deeside Railway
T: 8x32R 3C (Ron Arrowsmith, RSCDS Bk 40)
P: On the Fiddle
C: Joe Hornsby, arr. T. Traub 6-29-2011
R: reel
M: 4/4
K: A
L: 1/8
|: cd|"A"e2 ef ecBA| "A"ceef e2 eB|"F#m"cffg fecB|"F#m"cffg "D"f2 "E"ed|"A"ceef ecBA|
"A"ceef e2 cA|"D"defd "A"caec|"E"dBGE "A"A2 :||: cB|"A"AccB A2 cd|"A"ceed c2 BA|
"E"GBBA G2 gf|"E"feed "A"c2 cd|"A"eccB A2 ag|"D"fdAf "E"e2 fg|"A"aecA "E"fdBG|"A"A2 c2 A2 :|